dist/svg/device.svg

<!-- Generated by Trend Micro Style Portal -->
<svg version="1.1" xmlns="http://www.w3.org/2000/svg" width="16" height="16" viewBox="0 0 16 16">
  <title>device</title>
  <path fill="rgb(34,34,34)" d="M14 3h-12l-2 3v6c0 0.6 0.4 1 1 1h14c0.6 0 1-0.4 1-1v-6l-2-3zM11 11h-1v-3h1v3zM14 11h-2v-3h2v3zM1.7 6l1.3-2h10l1.3 2h-12.6z"></path>
</svg>

<svg width="16" height="16" viewBox="0 0 16 16" fill="rgb(34, 34, 34)" xmlns="http://www.w3.org/2000/svg"><title>device</title><path d="M14 3H2L0 6V12C0 12.6 0.4 13 1 13H15C15.6 13 16 12.6 16 12V6L14 3ZM11 11H10V8H11V11ZM14 11H12V8H14V11ZM1.7 6L3 4H13L14.3 6H1.7Z" fill="rgb(34, 34, 34)" fill-opacity="1.00"/></svg>
